X:1
T:Title
%%score ( 1 2 ) ( 3 4 )
L:1/8
Q:1/4=80
M:4/4
K:Ab
V:1 treble nm="Oboe, Soprano"
V:2 treble 
V:3 bass nm="Oboe, Bass"
V:4 bass 
V:1
 z4 z2 [CE][CE] | [CE][Ec][Ec][DB] [CA]2 [CE][A,C] | E6 z2 | [CE][Ed][Ed][EB] [EG]2 [EF]E | %4
 [Ec]6 E[EA] | [Ac][Ac][Ac][Ad] [Ae]2 [EA][EA] | [DF][DF][DF][FA] [Fd]2 [DF][DF] | %7
 [CE][CE][EG][EA] [EB]2 [Ec][DB] | A2- [DA-][DA-] [CA]2[Q:1/4=80] [Ec][Ec][Q:1/4=12] | %9
 [Ec][Ec][Ec][Ec] [Fd]2 [Ec][CA] | [Ec]6 [Ec][Ed] | [Ae][Ae][Ae][Ae] [Ac]2 [AB]A | %12
 B2- [FB-][FB-] [GB]2 [Ec][DB] | [CA][CE][CE][CE] [CE]2 [EA][EG] | %14
 [EG][DF][DF][DF] [DF]2 [DF][DF] | [CE][CE][EG][EA] [EB]2 [Ec][DB] | A6[Q:1/4=80] z2[Q:1/4=12] |] %17
V:2
 x8 | x8 | C2 DD C2 [CE][CE] | x8 | x8 | x8 | x8 | x8 | C2 z2 z4 | x8 | x8 | x8 | G2 z2 z4 | x8 | %14
 x8 | x8 | C2 DD C2 z2 |] %17
V:3
 z4 z2 [A,,A,][A,,A,] | [A,,A,][A,,A,][A,,A,][A,,E,] [A,,E,]2 [A,,A,][A,,A,] | %2
w: 1.~In~ the~|shad ow~ of~ the~ cross~ let~ me~|
 A,2 F,F, E,2 [A,,A,][A,,A,] | [E,G,][E,B,][E,B,][E,G,] [E,B,]2 [E,A,][E,G,] | %4
w: hide~ (let~ me~ hide),~ There~ the~|Sav ior~ for~ my~ sins~ bled~ and~|
 A,-[A,,A,-][C,A,-][E,A,] A,2 [A,C][A,C] | [A,E][A,E][A,E][A,B,] [A,C]2 [C,A,][C,A,] | %6
w: died~ * * * * There~ the~|pre cious,~ cleans ing~ fount~ Flows~ so~|
 [D,A,][D,A,][D,A,][D,A,] [D,A,]2 [D,A,][D,A,] | [E,A,][E,A,][E,B,][E,C] [E,D]2 [E,G,][E,G,] | %8
w: free~ from~ Cal v'ry's~ mount,~ In~ the~|shad ow~ of~ the~ cross~ let~ me~|
 A,2 F,F, E,2 [A,,A,][A,,A,] | [A,,A,][A,,A,][A,,A,][A,,A,] [A,,A,]2 [A,,A,][A,,A,] | %10
w: hide~ (let~ me~ hide).~ * *||
 A,-[A,,A,-][C,A,-][E,A,] A,2 A,[A,B,] | [A,C][A,C][A,C][A,C] [A,E]2 [A,D][A,C] | %12
w: ||
 [E,E]2 [B,,=D][B,,D] [E,E]2 [E,A,][E,G,] | [A,,A,][A,,A,][A,,A,][A,,A,] [A,,A,]2 [C,A,][C,A,] | %14
w: ||
 [D,A,][D,A,][D,A,][D,A,] [D,A,]2 [D,A,][D,A,] | [E,A,][E,A,][E,B,][E,C] [E,D]2 [E,G,][E,G,] | %16
w: * * * * * In~ the~|shad ow~ of~ the~ cross~ let~ me~|
 A,2 F,F, E,2 z2 |] %17
w: hide~ (let~ me~ hide).~|
V:4
 x8 | x8 | A,,6 z2 | x8 | .A,,2 z2 z4 | x8 | x8 | x8 | A,,6 z2 | x8 | .A,,2 z2 z4 | x8 | x8 | x8 | %14
 x8 | x8 | A,,6 z2 |] %17

